icons/reactjs-fill.svg

<svg xmlns="http://www.w3.org/2000/svg" width="24" height="24" fill="none"><g clip-path="url(#a)"><g><path fill="#121212" d="M14.448 16.24C13.9125 17.0014 13.329 17.7279 12.701 18.415C14.373 20.038 15.929 20.798 16.791 20.299C17.655 19.801 17.774 18.074 17.205 15.815C16.352 16.005 15.425 16.149 14.448 16.24ZM13.138 16.327C12.3797 16.3584 11.6203 16.3584 10.862 16.327C11.239 16.819 11.62 17.275 12 17.691C12.38 17.275 12.76 16.819 13.138 16.327ZM18.178 8.43296C20.843 9.19696 22.583 10.467 22.583 12C22.583 13.533 20.843 14.803 18.178 15.567C18.848 18.257 18.619 20.399 17.292 21.165C15.964 21.932 13.994 21.06 12 19.135C10.006 21.06 8.03599 21.932 6.70799 21.165C5.38099 20.399 5.15099 18.257 5.82199 15.567C3.15699 14.803 1.41699 13.533 1.41699 12C1.41699 10.467 3.15699 9.19696 5.82199 8.43296C5.15199 5.74296 5.38099 3.60096 6.70799 2.83496C8.03599 2.06796 10.006 2.93996 12 4.86496C13.994 2.93996 15.964 2.06796 17.292 2.83496C18.619 3.60096 18.849 5.74296 18.178 8.43296ZM17.205 8.18496C17.775 5.92496 17.655 4.19896 16.792 3.70096C15.929 3.20196 14.373 3.96196 12.702 5.58496C13.293 6.22796 13.881 6.95896 14.448 7.75996C15.426 7.84996 16.352 7.99396 17.205 8.18496ZM6.79499 15.815C6.22499 18.075 6.34499 19.801 7.20799 20.299C8.07099 20.798 9.62699 20.038 11.298 18.415C10.6703 17.7278 10.0871 17.0014 9.55199 16.24C8.62489 16.1571 7.70402 16.0151 6.79499 15.815ZM10.862 7.67296C11.6203 7.64156 12.3797 7.64156 13.138 7.67296C12.7785 7.20242 12.3988 6.74766 12 6.30996C11.62 6.72596 11.24 7.18196 10.862 7.67396V7.67296ZM9.55199 7.75996C10.0878 6.9985 10.6716 6.27202 11.3 5.58496C9.62699 3.96196 8.06999 3.20196 7.20899 3.70096C6.34499 4.19896 6.22599 5.92596 6.79499 8.18496C7.64799 7.99496 8.57499 7.85096 9.55199 7.75996ZM13.894 15.28C14.6058 14.2353 15.2386 13.1389 15.787 12C15.2386 10.861 14.6058 9.7646 13.894 8.71996C12.6331 8.62556 11.3669 8.62556 10.106 8.71996C9.39415 9.7646 8.76139 10.861 8.21299 12C8.76139 13.1389 9.39415 14.2353 10.106 15.28C11.3669 15.3744 12.6331 15.3744 13.894 15.28ZM15.178 15.149C15.793 15.069 16.378 14.966 16.928 14.845C16.7481 14.2807 16.5439 13.7245 16.316 13.178C15.964 13.85 15.5843 14.5073 15.178 15.148V15.149ZM8.82199 8.84996C8.20699 8.92996 7.62199 9.03296 7.07199 9.15396C7.24199 9.68996 7.44599 10.248 7.68399 10.821C8.036 10.1489 8.41566 9.49165 8.82199 8.85096V8.84996ZM7.07199 14.844C7.62199 14.965 8.20699 15.067 8.82199 15.148C8.41566 14.5073 8.036 13.85 7.68399 13.178C7.44599 13.75 7.24199 14.308 7.07199 14.844ZM6.09399 14.599C6.35499 13.765 6.69399 12.891 7.10399 11.999C6.69399 11.107 6.35499 10.233 6.09399 9.39896C3.85199 10.036 2.41699 11.003 2.41699 11.999C2.41699 12.995 3.85199 13.962 6.09399 14.599ZM16.928 9.15396C16.378 9.03296 15.793 8.93096 15.178 8.84996C15.5843 9.49065 15.964 10.1479 16.316 10.82C16.554 10.248 16.758 9.68996 16.928 9.15396ZM17.906 9.39896C17.645 10.233 17.306 11.107 16.896 11.999C17.306 12.891 17.645 13.765 17.906 14.599C20.148 13.962 21.583 12.995 21.583 11.999C21.583 11.003 20.148 10.036 17.906 9.39896ZM12 13.88C11.7531 13.88 11.5086 13.8313 11.2805 13.7369C11.0525 13.6424 10.8452 13.5039 10.6706 13.3293C10.4961 13.1547 10.3576 12.9475 10.2631 12.7194C10.1686 12.4913 10.12 12.2468 10.12 12C10.12 11.7531 10.1686 11.5086 10.2631 11.2805C10.3576 11.0524 10.4961 10.8452 10.6706 10.6706C10.8452 10.496 11.0525 10.3575 11.2805 10.2631C11.5086 10.1686 11.7531 10.12 12 10.12C12.4986 10.12 12.9768 10.318 13.3294 10.6706C13.6819 11.0232 13.88 11.5014 13.88 12C13.88 12.4986 13.6819 12.9768 13.3294 13.3293C12.9768 13.6819 12.4986 13.88 12 13.88Z"/></g></g><defs><clipPath id="a"><rect width="24" height="24" fill="white"/></clipPath></defs></svg>

<svg width="24" height="24" fill="none" xmlns="http://www.w3.org/2000/svg"><g clip-path="url(#a)"><path d="M14.448 16.24a21.887 21.887 0 0 1-1.747 2.175c1.672 1.623 3.228 2.383 4.09 1.884.864-.498.983-2.225.414-4.484-.853.19-1.78.334-2.757.425Zm-1.31.087c-.758.031-1.518.031-2.276 0 .377.492.758.948 1.138 1.364.38-.416.76-.872 1.138-1.364Zm5.04-7.894c2.665.764 4.405 2.034 4.405 3.567 0 1.533-1.74 2.803-4.405 3.567.67 2.69.441 4.832-.886 5.598-1.328.767-3.298-.105-5.292-2.03-1.994 1.925-3.964 2.797-5.292 2.03-1.327-.766-1.557-2.908-.886-5.598-2.665-.764-4.405-2.034-4.405-3.567 0-1.533 1.74-2.803 4.405-3.567-.67-2.69-.441-4.832.886-5.598 1.328-.767 3.298.105 5.292 2.03 1.994-1.925 3.964-2.797 5.292-2.03 1.327.766 1.557 2.908.886 5.598Zm-.973-.248c.57-2.26.45-3.986-.413-4.484-.863-.499-2.419.261-4.09 1.884a22.049 22.049 0 0 1 1.746 2.175c.978.09 1.904.234 2.757.425Zm-10.41 7.63c-.57 2.26-.45 3.986.413 4.484.863.499 2.419-.261 4.09-1.884a21.876 21.876 0 0 1-1.746-2.175 21.896 21.896 0 0 1-2.757-.425Zm4.067-8.142a27.507 27.507 0 0 1 2.276 0c-.36-.47-.74-.925-1.138-1.363-.38.416-.76.872-1.138 1.364v-.001Zm-1.31.087A21.873 21.873 0 0 1 11.3 5.585C9.627 3.962 8.07 3.202 7.209 3.701c-.864.498-.983 2.225-.414 4.484.853-.19 1.78-.334 2.757-.425Zm4.342 7.52A25.382 25.382 0 0 0 15.787 12a25.372 25.372 0 0 0-1.893-3.28 25.369 25.369 0 0 0-3.788 0A25.366 25.366 0 0 0 8.213 12a25.376 25.376 0 0 0 1.893 3.28c1.26.094 2.527.094 3.788 0Zm1.284-.131c.615-.08 1.2-.183 1.75-.304-.18-.564-.384-1.12-.612-1.667a27.54 27.54 0 0 1-1.138 1.97v.001ZM8.822 8.85c-.615.08-1.2.183-1.75.304.17.536.374 1.094.612 1.667a27.5 27.5 0 0 1 1.138-1.97V8.85Zm-1.75 5.994c.55.121 1.135.223 1.75.304a27.532 27.532 0 0 1-1.138-1.97 20.42 20.42 0 0 0-.612 1.666Zm-.978-.245c.261-.834.6-1.708 1.01-2.6a22 22 0 0 1-1.01-2.6c-2.242.637-3.677 1.604-3.677 2.6s1.435 1.963 3.677 2.6Zm10.834-5.445a20.808 20.808 0 0 0-1.75-.304 27.5 27.5 0 0 1 1.138 1.97c.238-.572.442-1.13.612-1.666Zm.978.245a22 22 0 0 1-1.01 2.6c.41.892.749 1.766 1.01 2.6 2.242-.637 3.677-1.604 3.677-2.6s-1.435-1.963-3.677-2.6ZM12 13.88a1.882 1.882 0 0 1-1.737-2.6 1.882 1.882 0 0 1 3.066-.61A1.88 1.88 0 0 1 12 13.88Z" /></g><defs><clipPath id="a"><path fill="#fff" d="M0 0h24v24H0z"/></clipPath></defs></svg>
